X:29
T:Valse sudoise
O:Sude
R:Valse
Z:Transcrit et/ou corrig par Michel BELLON - 2006-04-09
Z:Pour toute observation mailto:galouvielle@free.fr
M:3/4
L:1/8
K:Am
E2 |: "Am"A3B ce | "Dm"d3c BA | "E"^G2E2D2 | "Am"C4E2 | A2^GA cA | "C"G6 | "B7"^F2 FE FA | "E"^G4E2 |
"Am"A3B ce | "Dm"d3c BA | "E"^G2E2D2 | "Am"C4E2 | A3B cd | "C"e2d2cB | "E"c2B2A^G |1 "Am"A4E2 :|2 "Am"A4 c2 |:
"Am"cA AE Ac | cA AE Ac | c2B2A2 | "E"^G4B2 | B^G GE GB | B^G GE GB | B2c2B2 | "Am"A4c2 |
cA AE Ac | cA AE Ac | e2a2g2 | "Dm"f4 ff | f2g2f2 | "C"e4c2 | "E"c2B2A^G |1 "Am"A4c2 :|2 "Am"A4 |]
